Images/Regular/meem-ar.medi.1.svg

<?xml version="1.0" standalone="no"?>
<svg
   version="1.1"
   viewBox="0 0 490.0 1500.0"
   width="490.0"
   height="1500.0"
   xmlns="http://www.w3.org/2000/svg"
   xmlns:sodipodi="http://sodipodi.sourceforge.net/DTD/sodipodi-0.dtd">
 <sodipodi:namedview objecttolerance="1" gridtolerance="1" guidetolerance="1">
  <sodipodi:guide position="0,400" orientation="0,-1"/>
 </sodipodi:namedview>
 <g transform="matrix(1 0 0 -1 0 1100.0)">
  <path opacity="0.75" d="M-20.0 0.0H180.0V100.0H-20.0V0.0ZM310.0 0.0H510.0V100.0H310.0V0.0ZM261.0 450.0ZM211.0 -250.0ZM245.0 -100.0C327.0 -100.0 393.0 -33.0 393.0 50.0C393.0 126.0 352.0 194.0 264.0 249.0C253.0 237.0 242.0 226.0 235.0 200.0C158.0 195.0 96.0 129.0 96.0 50.0C96.0 -33.0 163.0 -100.0 245.0 -100.0ZM245.0 0.0C217.0 0.0 195.0 22.0 195.0 50.0C195.0 78.0 217.0 100.0 245.0 100.0C273.0 100.0 295.0 78.0 295.0 50.0C295.0 22.0 273.0 0.0 245.0 0.0Z" />
 </g>
</svg>

<?xml version="1.0" encoding="UTF-8" standalone="no"?>
<svg
   version="1.1"
   viewBox="0 0 490.0 1500.0"
   width="490.0"
   height="1500.0"
   id="svg177"
   sodipodi:docname="meem-ar.medi.1.svg"
   inkscape:version="1.1.1 (c3084ef, 2021-09-22)"
   xmlns:inkscape="http://www.inkscape.org/namespaces/inkscape"
   xmlns:sodipodi="http://sodipodi.sourceforge.net/DTD/sodipodi-0.dtd"
   xmlns:xlink="http://www.w3.org/1999/xlink"
   xmlns="http://www.w3.org/2000/svg"
   xmlns:svg="http://www.w3.org/2000/svg">
  <defs
     id="defs179">
    <linearGradient
       inkscape:collect="always"
       id="linearGradient6992">
      <stop
         style="stop-color:#000000;stop-opacity:1;"
         offset="0"
         id="stop6988" />
      <stop
         style="stop-color:#000000;stop-opacity:0;"
         offset="1"
         id="stop6990" />
    </linearGradient>
    <linearGradient
       inkscape:collect="always"
       xlink:href="#linearGradient6992"
       id="linearGradient7015"
       gradientUnits="userSpaceOnUse"
       x1="265.09317"
       y1="249.06833"
       x2="286.24496"
       y2="179.01572"
       gradientTransform="matrix(1,0,0,-1,0,1100)" />
    <linearGradient
       inkscape:collect="always"
       xlink:href="#linearGradient6992"
       id="linearGradient7099"
       gradientUnits="userSpaceOnUse"
       x1="265.09317"
       y1="249.06833"
       x2="225.63582"
       y2="177.25893"
       gradientTransform="matrix(1,0,0,-1,0,1100)" />
  </defs>
  <sodipodi:namedview
     objecttolerance="1"
     gridtolerance="1"
     guidetolerance="1"
     id="namedview171"
     pagecolor="#ffffff"
     bordercolor="#cccccc"
     borderopacity="1"
     inkscape:pageshadow="0"
     inkscape:pageopacity="1"
     inkscape:pagecheckerboard="0"
     showgrid="false"
     inkscape:current-layer="svg177">
    <sodipodi:guide
       position="0,400"
       orientation="0,-1"
       id="guide169" />
  </sodipodi:namedview>
  <g
     transform="matrix(1,0,0,-1,0,1100)"
     id="g175">
    <path
       opacity="0.75"
       d="M -20,0 H 180 V 100 H -20 Z M 310,0 H 510 V 100 H 310 Z m -49,450 z m -50,-700 z m 34,150 c 82,0 148,67 148,150 0,76 -41,144 -129,199 C 253,237 242,226 235,200 158,195 96,129 96,50 c 0,-83 67,-150 149,-150 z m 0,100 c -28,0 -50,22 -50,50 0,28 22,50 50,50 28,0 50,-22 50,-50 C 295,22 273,0 245,0 Z"
       id="path173" />
  </g>
  <path
     d="M -329,1250 Z"
     id="path6197"
     style="display:inline" />
  <path
     d="M -279,550 Z"
     id="path6195"
     style="display:inline" />
  <path
     opacity="0.375"
     d="M -20,1100 H 180 V 1000 H -20 Z m 330,0 H 510 V 1000 H 310 Z M 261,650 Z m -50,700 z m 34,-150 c 82,0 148,-67 148,-150 0,-76 -41,-144 -129,-199 -11,12 -22,23 -29,49 -77,5 -139,71 -139,150 0,83 67,150 149,150 z m 0,-100 c -28,0 -50,-22 -50,-50 0,-28 22,-50 50,-50 28,0 50,22 50,50 0,28 -22,50 -50,50 z"
     id="path6891"
     style="fill:url(#linearGradient7015);fill-opacity:1" />
  <path
     opacity="0.375"
     d="M -20,1100 H 180 V 1000 H -20 Z m 330,0 H 510 V 1000 H 310 Z M 261,650 Z m -50,700 z m 34,-150 c 82,0 148,-67 148,-150 0,-76 -41,-144 -129,-199 -11,12 -22,23 -29,49 -77,5 -139,71 -139,150 0,83 67,150 149,150 z m 0,-100 c -28,0 -50,-22 -50,-50 0,-28 22,-50 50,-50 28,0 50,22 50,50 0,28 -22,50 -50,50 z"
     id="path7017"
     style="fill:url(#linearGradient7099);fill-opacity:1" />
</svg>
